X: 39479
T: Tartar Frigate, The
R: reel
M: 4/4
K: Ddorian
|:dD (3DDD cDAD|(3DDD dD cdec|dD (3DDD cdAG|EAGE DEGA|
dD (3DDD cDdD|(3DDD dD cdeg|agef dcAG|EDCE (3DDD (3ABc:|
~d3 e fdge|aA (3AAA gAaA|(3AAA ge dece|dcAG ABcA|
~d3 e fdge|aA (3AAA gAeA|(3AAA ce dcAG|EDCE (3DDD (3ABc|
~d3 e fdge|aA (3AAA gAaA|(3AAA ge dece|dcAG ABce|
agef dcAB|cAGF ECGE|(3DDD dD cdAG|EAGE D4|

